Apricity Icons/apps/scalable/solfege.svg

<?xml version="1.0" encoding="UTF-8" standalone="no"?>
<svg
   xmlns:dc="http://purl.org/dc/elements/1.1/"
   xmlns:cc="http://creativecommons.org/ns#"
   xmlns:rdf="http://www.w3.org/1999/02/22-rdf-syntax-ns#"
   xmlns:svg="http://www.w3.org/2000/svg"
   xmlns="http://www.w3.org/2000/svg"
   xmlns:xlink="http://www.w3.org/1999/xlink"
   xmlns:sodipodi="http://sodipodi.sourceforge.net/DTD/sodipodi-0.dtd"
   xmlns:inkscape="http://www.inkscape.org/namespaces/inkscape"
   viewBox="0 0 48 48"
   id="svg2"
   version="1.1"
   inkscape:version="0.48.5 r10040"
   width="100%"
   height="100%"
   sodipodi:docname="solfege.svg"
   inkscape:export-filename="/home/ismael/Imágenes/icons.png"
   inkscape:export-xdpi="245"
   inkscape:export-ydpi="245">
  <metadata
     id="metadata61">
    <rdf:RDF>
      <cc:Work
         rdf:about="">
        <dc:format>image/svg+xml</dc:format>
        <dc:type
           rdf:resource="http://purl.org/dc/dcmitype/StillImage" />
        <dc:title />
      </cc:Work>
    </rdf:RDF>
  </metadata>
  <sodipodi:namedview
     pagecolor="#ffffff"
     bordercolor="#666666"
     borderopacity="1"
     objecttolerance="10"
     gridtolerance="10"
     guidetolerance="10"
     inkscape:pageopacity="0"
     inkscape:pageshadow="2"
     inkscape:window-width="1366"
     inkscape:window-height="737"
     id="namedview59"
     showgrid="false"
     inkscape:snap-bbox="true"
     inkscape:object-paths="true"
     inkscape:snap-intersection-paths="true"
     inkscape:object-nodes="false"
     inkscape:snap-smooth-nodes="false"
     inkscape:snap-midpoints="false"
     inkscape:snap-grids="true"
     inkscape:zoom="12.021277"
     inkscape:cx="16.969929"
     inkscape:cy="23.5"
     inkscape:window-x="0"
     inkscape:window-y="0"
     inkscape:window-maximized="1"
     inkscape:current-layer="svg2">
    <inkscape:grid
       type="xygrid"
       id="grid3038" />
  </sodipodi:namedview>
  <defs
     id="defs4">
    <linearGradient
       id="linearGradient3827">
      <stop
         style="stop-color:#3f3953;stop-opacity:1;"
         offset="0"
         id="stop3829" />
      <stop
         style="stop-color:#766b99;stop-opacity:1;"
         offset="1"
         id="stop3831" />
    </linearGradient>
    <linearGradient
       id="linearGradient3817">
      <stop
         id="stop3819"
         offset="0"
         style="stop-color:#655b85;stop-opacity:1;" />
      <stop
         id="stop3821"
         offset="1"
         style="stop-color:#3f3953;stop-opacity:1;" />
    </linearGradient>
    <linearGradient
       id="linearGradient3784">
      <stop
         style="stop-color:#655b85;stop-opacity:1;"
         offset="0"
         id="stop3786" />
      <stop
         style="stop-color:#3f3953;stop-opacity:1;"
         offset="1"
         id="stop3788" />
    </linearGradient>
    <linearGradient
       id="linearGradient3040">
      <stop
         style="stop-color:#fffccd;stop-opacity:1;"
         offset="0"
         id="stop3042" />
      <stop
         style="stop-color:#fffbb9;stop-opacity:1;"
         offset="1"
         id="stop3044" />
    </linearGradient>
    <linearGradient
       id="linearGradient3764"
       x1="1"
       x2="47"
       gradientUnits="userSpaceOnUse"
       gradientTransform="matrix(0,-1,1,0,-1.5e-6,47.999998)">
      <stop
         stop-color="#333"
         stop-opacity="1"
         id="stop7" />
      <stop
         offset="1"
         stop-color="#3d3d3d"
         stop-opacity="1"
         id="stop9" />
    </linearGradient>
    <clipPath
       id="clipPath-799970715">
      <g
         transform="translate(0,-1004.3622)"
         id="g12">
        <path
           d="m -24 13 c 0 1.105 -0.672 2 -1.5 2 -0.828 0 -1.5 -0.895 -1.5 -2 0 -1.105 0.672 -2 1.5 -2 0.828 0 1.5 0.895 1.5 2 z"
           transform="matrix(15.333333,0,0,11.5,414.99999,878.8622)"
           fill="#1890d0"
           id="path14" />
      </g>
    </clipPath>
    <clipPath
       id="clipPath-808101755">
      <g
         transform="translate(0,-1004.3622)"
         id="g17">
        <path
           d="m -24 13 c 0 1.105 -0.672 2 -1.5 2 -0.828 0 -1.5 -0.895 -1.5 -2 0 -1.105 0.672 -2 1.5 -2 0.828 0 1.5 0.895 1.5 2 z"
           transform="matrix(15.333333,0,0,11.5,414.99999,878.8622)"
           fill="#1890d0"
           id="path19" />
      </g>
    </clipPath>
    <linearGradient
       inkscape:collect="always"
       xlink:href="#linearGradient3040"
       id="linearGradient3046"
       x1="24"
       y1="1"
       x2="24"
       y2="47"
       gradientUnits="userSpaceOnUse" />
    <linearGradient
       inkscape:collect="always"
       xlink:href="#linearGradient3784"
       id="linearGradient3790"
       x1="-34.270798"
       y1="9.1876106"
       x2="-10.895576"
       y2="33.97699"
       gradientUnits="userSpaceOnUse" />
    <linearGradient
       inkscape:collect="always"
       xlink:href="#linearGradient3784"
       id="linearGradient3793"
       gradientUnits="userSpaceOnUse"
       x1="-34.270798"
       y1="9.1876106"
       x2="-10.895576"
       y2="33.97699" />
    <linearGradient
       inkscape:collect="always"
       xlink:href="#linearGradient3784"
       id="linearGradient3795"
       gradientUnits="userSpaceOnUse"
       x1="-34.270798"
       y1="9.1876106"
       x2="-10.895576"
       y2="33.97699" />
    <linearGradient
       inkscape:collect="always"
       xlink:href="#linearGradient3784"
       id="linearGradient3797"
       gradientUnits="userSpaceOnUse"
       x1="-34.270798"
       y1="9.1876106"
       x2="-10.895576"
       y2="33.97699" />
    <linearGradient
       inkscape:collect="always"
       xlink:href="#linearGradient3784"
       id="linearGradient3800"
       gradientUnits="userSpaceOnUse"
       x1="-34.270798"
       y1="9.1876106"
       x2="-10.895576"
       y2="33.97699"
       gradientTransform="translate(46,2)" />
    <linearGradient
       inkscape:collect="always"
       xlink:href="#linearGradient3784"
       id="linearGradient3803"
       gradientUnits="userSpaceOnUse"
       x1="-34.270798"
       y1="9.1876106"
       x2="-10.895576"
       y2="33.97699"
       gradientTransform="translate(41,0)" />
    <linearGradient
       inkscape:collect="always"
       xlink:href="#linearGradient3784"
       id="linearGradient3806"
       gradientUnits="userSpaceOnUse"
       gradientTransform="translate(41,0)"
       x1="-34.270798"
       y1="9.1876106"
       x2="-10.895576"
       y2="33.97699" />
    <linearGradient
       inkscape:collect="always"
       xlink:href="#linearGradient3827"
       id="linearGradient3833"
       x1="35.021236"
       y1="36.603539"
       x2="12.061947"
       y2="11.148674"
       gradientUnits="userSpaceOnUse" />
  </defs>
  <g
     id="g21">
    <path
       d="m 36.31 5 c 5.859 4.062 9.688 10.831 9.688 18.5 c 0 12.426 -10.07 22.5 -22.5 22.5 c -7.669 0 -14.438 -3.828 -18.5 -9.688 c 1.037 1.822 2.306 3.499 3.781 4.969 c 4.085 3.712 9.514 5.969 15.469 5.969 c 12.703 0 23 -10.298 23 -23 c 0 -5.954 -2.256 -11.384 -5.969 -15.469 c -1.469 -1.475 -3.147 -2.744 -4.969 -3.781 z m 4.969 3.781 c 3.854 4.113 6.219 9.637 6.219 15.719 c 0 12.703 -10.297 23 -23 23 c -6.081 0 -11.606 -2.364 -15.719 -6.219 c 4.16 4.144 9.883 6.719 16.219 6.719 c 12.703 0 23 -10.298 23 -23 c 0 -6.335 -2.575 -12.06 -6.719 -16.219 z"
       opacity="0.05"
       id="path23" />
    <path
       d="m 41.28 8.781 c 3.712 4.085 5.969 9.514 5.969 15.469 c 0 12.703 -10.297 23 -23 23 c -5.954 0 -11.384 -2.256 -15.469 -5.969 c 4.113 3.854 9.637 6.219 15.719 6.219 c 12.703 0 23 -10.298 23 -23 c 0 -6.081 -2.364 -11.606 -6.219 -15.719 z"
       opacity="0.1"
       id="path25" />
    <path
       d="m 31.25 2.375 c 8.615 3.154 14.75 11.417 14.75 21.13 c 0 12.426 -10.07 22.5 -22.5 22.5 c -9.708 0 -17.971 -6.135 -21.12 -14.75 a 23 23 0 0 0 44.875 -7 a 23 23 0 0 0 -16 -21.875 z"
       opacity="0.2"
       id="path27" />
  </g>
  <g
     id="g29"
     style="fill:#ffeeaa">
    <path
       d="m 24 1 c 12.703 0 23 10.297 23 23 c 0 12.703 -10.297 23 -23 23 -12.703 0 -23 -10.297 -23 -23 0 -12.703 10.297 -23 23 -23 z"
       fill="url(#linearGradient3764)"
       fill-opacity="1"
       id="path31"
       style="fill:url(#linearGradient3046);fill-opacity:1" />
  </g>
  <g
     id="g33" />
  <g
     id="g3058"
     style="fill:#999999">
    <path
       sodipodi:nodetypes="ccccc"
       inkscape:connector-curvature="0"
       id="path3048"
       d="m 1,23 45.979086,0 0.03137,1.0002 L 1,24 z"
       style="fill:#999999;stroke:none" />
    <path
       sodipodi:nodetypes="ccccc"
       style="fill:#999999;stroke:none"
       d="M 1.3670221,20 46.64446,20 46.80907,21 1.1948071,21 z"
       id="path3050"
       inkscape:connector-curvature="0" />
    <path
       sodipodi:nodetypes="ccccc"
       inkscape:connector-curvature="0"
       id="path3052"
       d="m 1.1072738,26 45.7854522,0 -0.0732,1 -45.6234555,0.01693 z"
       style="fill:#999999;stroke:none" />
    <path
       sodipodi:nodetypes="ccccc"
       style="fill:#999999;stroke:none"
       d="m 2.1359417,17 43.7699453,0 0.307131,1 -44.3907879,0 z"
       id="path3054"
       inkscape:connector-curvature="0" />
    <path
       sodipodi:nodetypes="ccccc"
       inkscape:connector-curvature="0"
       id="path3056"
       d="M 1.567384,29 46.458281,28.980535 46.205488,30.011247 1.8183532,30 z"
       style="fill:#999999;stroke:none" />
  </g>
  <g
     id="g55">
    <path
       d="m 40.03 7.531 c 3.712 4.084 5.969 9.514 5.969 15.469 0 12.703 -10.297 23 -23 23 c -5.954 0 -11.384 -2.256 -15.469 -5.969 4.178 4.291 10.01 6.969 16.469 6.969 c 12.703 0 23 -10.298 23 -23 0 -6.462 -2.677 -12.291 -6.969 -16.469 z"
       opacity="0.1"
       id="path57" />
  </g>
  <g
     style="fill:#000000;opacity:0.1"
     transform="translate(47,3)"
     id="g3076">
    <path
       sodipodi:type="arc"
       style="fill:#000000;fill-opacity:1;fill-rule:nonzero;stroke:none"
       id="path3078"
       sodipodi:cx="-22"
       sodipodi:cy="31"
       sodipodi:rx="7"
       sodipodi:ry="5"
       d="m -15,31 c 0,2.761424 -3.134007,5 -7,5 -3.865993,0 -7,-2.238576 -7,-5 0,-2.761424 3.134007,-5 7,-5 3.865993,0 7,2.238576 7,5 z"
       transform="translate(-5,-2)" />
    <path
       style="fill:#000000;stroke:none"
       d="m -20,29 -2,-15 c 0,0 4,0 6,1 3.224903,1.612452 5,5 5,5 l 0,-7 c 0,0 -3,-2 -7,-3 -4,-1 -7,-1 -7,-1 l 4,20 z"
       id="path3080"
       inkscape:connector-curvature="0"
       sodipodi:nodetypes="ccscczccc" />
  </g>
  <path
     style="fill:url(#linearGradient3833);fill-opacity:1;fill-rule:nonzero;stroke:none"
     d="M 21 11 L 24.34375 27.78125 C 23.059697 26.695168 21.145989 26 19 26 C 15.134007 26 12 28.238576 12 31 C 12 33.761424 15.134007 36 19 36 C 22.865993 36 26 33.761424 26 31 C 26 30.720812 25.967838 30.454226 25.90625 30.1875 L 24 16 C 24 16 28 16 30 17 C 33.224903 18.612452 35 22 35 22 L 35 15 C 35 15 32 13 28 12 C 24 11 21 11 21 11 z "
     id="path3067" />
</svg>

<svg xmlns="http://www.w3.org/2000/svg" viewBox="0 0 48 48">
 <defs>
  <linearGradient id="linearGradient3046" y1="1" x2="0" y2="47" gradientUnits="userSpaceOnUse">
   <stop style="stop-color:#fffccd;stop-opacity:1"/>
   <stop offset="1" style="stop-color:#fffbb9;stop-opacity:1"/>
  </linearGradient>
  <linearGradient id="linearGradient3833" x1="35.02" y1="36.604" x2="12.06" y2="11.149" gradientUnits="userSpaceOnUse">
   <stop style="stop-color:#3f3953;stop-opacity:1"/>
   <stop offset="1" style="stop-color:#766b99;stop-opacity:1"/>
  </linearGradient>
 </defs>
 <g>
  <path d="m 36.31 5 c 5.859 4.062 9.688 10.831 9.688 18.5 c 0 12.426 -10.07 22.5 -22.5 22.5 c -7.669 0 -14.438 -3.828 -18.5 -9.688 c 1.037 1.822 2.306 3.499 3.781 4.969 c 4.085 3.712 9.514 5.969 15.469 5.969 c 12.703 0 23 -10.298 23 -23 c 0 -5.954 -2.256 -11.384 -5.969 -15.469 c -1.469 -1.475 -3.147 -2.744 -4.969 -3.781 z m 4.969 3.781 c 3.854 4.113 6.219 9.637 6.219 15.719 c 0 12.703 -10.297 23 -23 23 c -6.081 0 -11.606 -2.364 -15.719 -6.219 c 4.16 4.144 9.883 6.719 16.219 6.719 c 12.703 0 23 -10.298 23 -23 c 0 -6.335 -2.575 -12.06 -6.719 -16.219 z" style="opacity:0.05"/>
  <path d="m 41.28 8.781 c 3.712 4.085 5.969 9.514 5.969 15.469 c 0 12.703 -10.297 23 -23 23 c -5.954 0 -11.384 -2.256 -15.469 -5.969 c 4.113 3.854 9.637 6.219 15.719 6.219 c 12.703 0 23 -10.298 23 -23 c 0 -6.081 -2.364 -11.606 -6.219 -15.719 z" style="opacity:0.1"/>
  <path d="m 31.25 2.375 c 8.615 3.154 14.75 11.417 14.75 21.13 c 0 12.426 -10.07 22.5 -22.5 22.5 c -9.708 0 -17.971 -6.135 -21.12 -14.75 a 23 23 0 0 0 44.875 -7 a 23 23 0 0 0 -16 -21.875 z" style="opacity:0.2"/>
 </g>
 <g style="fill:#fea">
  <path d="m 24 1 c 12.703 0 23 10.297 23 23 c 0 12.703 -10.297 23 -23 23 -12.703 0 -23 -10.297 -23 -23 0 -12.703 10.297 -23 23 -23 z" style="fill:url(#linearGradient3046);fill-opacity:1"/>
 </g>
 <g style="fill:#999">
  <path d="m 1 23 45.979 0 0.031 1 l -46.01 0 z" style="stroke:none"/>
  <path d="m 1.367 20 45.28 0 0.165 1 -45.614 0 z" style="stroke:none"/>
  <path d="m 1.107 26 45.785 0 -0.073 1 -45.623 0.017 z" style="stroke:none"/>
  <path d="m 2.136 17 43.77 0 0.307 1 -44.39 0 z" style="stroke:none"/>
  <path d="m 1.567 29 44.891 -0.019 -0.253 1.031 -44.39 -0.011 z" style="stroke:none"/>
 </g>
 <g>
  <path d="m 40.03 7.531 c 3.712 4.084 5.969 9.514 5.969 15.469 0 12.703 -10.297 23 -23 23 c -5.954 0 -11.384 -2.256 -15.469 -5.969 4.178 4.291 10.01 6.969 16.469 6.969 c 12.703 0 23 -10.298 23 -23 0 -6.462 -2.677 -12.291 -6.969 -16.469 z" style="opacity:0.1"/>
 </g>
 <g transform="translate(47,3)" style="fill:#000;opacity:0.1">
  <path d="m -15 31 c 0 2.761 -3.134 5 -7 5 -3.866 0 -7 -2.239 -7 -5 0 -2.761 3.134 -5 7 -5 3.866 0 7 2.239 7 5 z" transform="translate(-5,-2)" style="fill-opacity:1;stroke:none;fill-rule:nonzero"/>
  <path d="m -20 29 -2 -15 c 0 0 4 0 6 1 3.225 1.612 5 5 5 5 l 0 -7 c 0 0 -3 -2 -7 -3 -4 -1 -7 -1 -7 -1 l 4 20 z" style="stroke:none"/>
 </g>
 <path d="m 21 11 l 3.344 16.781 c -1.284 -1.086 -3.198 -1.781 -5.344 -1.781 c -3.866 0 -7 2.239 -7 5 c 0 2.761 3.134 5 7 5 c 3.866 0 7 -2.239 7 -5 c 0 -0.279 -0.032 -0.546 -0.094 -0.813 l -1.906 -14.188 c 0 0 4 0 6 1 c 3.225 1.612 5 5 5 5 l 0 -7 c 0 0 -3 -2 -7 -3 c -4 -1 -7 -1 -7 -1 z" style="fill:url(#linearGradient3833);fill-opacity:1;stroke:none;fill-rule:nonzero"/>
</svg>
